X:246
T: Zhiyuan qianfang da shengzhang
N: C1739
O: China,Liaoning Gaixian
S: III, 232]
R: Xiaodiao. Guniang yaopeisong]
M: 2/4
L: 1/16
K: G
d2dBA2AG | E2EGD4 |
d2dBA2AG | E2EGD4 |
d2dBA2AG | E2EGD4 |
d2B2A2AG | E2EGD4 |
G3GE2B2 | A8 |
A3Bd4 | d2E2G4 |
G3Ad2B2 | A3GE2G2 | D8 |
A3Bd4 | d3EG4 |
G3Ad2B2 | A3Ge2g2 | d8- | d8

@@@ Tune index: 6801
